X: 303
T:Hareu li maus d'amer
C:Adam de la Halle
F:https://gallica.bnf.fr/ark:/12148/btv1b6001348v/f72.item
F:https://archive.org/details/oeuvrescompltes00cousgoog/page/n295
Z:Ali Corbin <ali.corbin:gmail.com>
N: (condensed)
M:3/4
L:1/4
Q:1/4=120
K:D dorian
%
%%MIDI program 1       42 Cello
%%MIDI program 2       72 piccolo
%%MIDI program 3       70 bassoon
V:1 clef=treble
V:2 clef=treble
V:3 clef=treble_8
%
[V:1]     B  c2 |(3c/B/A/ (BA)| G  (3A2G/F/     || G   A2  ||
[V:2]     E  F2 |(3F/E/D/ (ED)| C  (3:2:3D^CB,  ||^C   D2  ||
[V:3]     G, F,2|  F,      E,2| E, (3:2:2D,E,2  || E,  D,2 ||
w: 1.4.7.~Ha-reu  li      maus d'a- mer*  2.8.~M'o-chist.
w: 3.~~~~~~Il me  fait     dé-  si-  rer.*       ~    ~
w: 5.~~~~~~~Par un douch   re-  gar- der*  6.~~~~Me  prist.
W:
W:Hareu li maus d'amer  % Help! The pain of loving 
W:M'ochist.             % Shook me. 
W:
W:Il me fait désirer.   % It makes me to desire. 
W:
W:
W:Hareu li maus d'amer 
W:
W:Par un douch regarder % With one sweet glance 
W:Me prist.             % Took me 
W:
W:Hareu li maus d'amer 
W:M'ochist.


